Papirus/32x32/mimetypes/image-svg+xml-compressed.svg

<svg xmlns="http://www.w3.org/2000/svg" width="32" height="32" version="1">
 <path style="opacity:0.2" d="M 29,27.6667 V 6.3327 C 29,5.5944 28.42,4.9997 27.7,4.9997 H 4.3 C 3.5798,4.9997 3,5.59437 3,6.333 V 27.667 C 3,28.405 3.5798,29 4.3,29 h 23.4 c 0.72,0 1.3,-0.595 1.3,-1.333 z"/>
 <path fill="#bf9a66" d="m29 26.667v-21.334c0-0.7383-0.58-1.333-1.3-1.333h-23.4c-0.7202 0-1.3 0.59467-1.3 1.3333v21.334c0 0.738 0.5798 1.333 1.3 1.333h23.4c0.72 0 1.3-0.595 1.3-1.333z"/>
 <path style="opacity:0.2" d="M 8.5,15 A 2.5,2.5 0 0 0 6,17.5 2.5,2.5 0 0 0 8.5,20 2.5,2.5 0 0 0 9.6660156,19.710938 l 2.4960934,2.912109 A 2.5,2.5 0 0 0 12,23.5 2.5,2.5 0 0 0 14.5,26 2.5,2.5 0 0 0 16.960938,23.916016 L 21.076172,23.09375 A 2.5,2.5 0 0 0 23.5,25 2.5,2.5 0 0 0 26,22.5 2.5,2.5 0 0 0 23.5,20 2.5,2.5 0 0 0 21.039062,22.082031 L 16.925781,22.90625 A 2.5,2.5 0 0 0 14.5,21 2.5,2.5 0 0 0 12.724609,21.744141 L 10.4375,19.076172 A 2.5,2.5 0 0 0 11,17.5 2.5,2.5 0 0 0 8.5,15 Z"/>
 <path style="opacity:0.2" d="m 16,12 c -1.105333,0 -2,0.9 -2,2 v 4 c 0,1.1 0.895,2 2,2 1.105,0 2,-0.9 2,-2 v -4 c 0,-1.1 -0.894667,-2 -2,-2 z m 0,1 c 0.552,0 1,0.4 1,1 0,0.499999 -0.448,1 -1,1 -0.552,0 -1,-0.500001 -1,-1 0,-0.6 0.448,-1 1,-1 z m 0,3 c 0.552285,0 1,0.447715 1,1 v 1 c 0,0.552285 -0.447715,1 -1,1 -0.552285,0 -1,-0.447715 -1,-1 v -1 c 0,-0.552285 0.447715,-1 1,-1 z"/>
 <path style="fill:#ffffff" d="m 8.5,14.0003 a 2.5,2.5 0 0 0 -2.5,2.5 2.5,2.5 0 0 0 2.5,2.5 2.5,2.5 0 0 0 1.1660156,-0.289062 l 2.4960934,2.912109 A 2.5,2.5 0 0 0 12,22.5003 a 2.5,2.5 0 0 0 2.5,2.5 2.5,2.5 0 0 0 2.460938,-2.083984 L 21.076172,22.09405 A 2.5,2.5 0 0 0 23.5,24.0003 a 2.5,2.5 0 0 0 2.5,-2.5 2.5,2.5 0 0 0 -2.5,-2.5 2.5,2.5 0 0 0 -2.460938,2.082031 L 16.925781,21.90655 A 2.5,2.5 0 0 0 14.5,20.0003 2.5,2.5 0 0 0 12.724609,20.744441 L 10.4375,18.076472 A 2.5,2.5 0 0 0 11,16.5003 a 2.5,2.5 0 0 0 -2.5,-2.5 z"/>
 <path fill="#fff" style="opacity:0.2" d="m4.2998 4c-0.7202 0-1.2998 0.5943-1.2998 1.333v1c0-0.7387 0.5796-1.333 1.2998-1.333h23.4c0.72 0 1.3 0.5943 1.3 1.333v-1c0-0.7387-0.58-1.333-1.3-1.333h-23.4z"/>
 <path style="opacity:0.2" d="M 14 4 L 14 10 C 14 11.1 14.895 12 16 12 C 17.105 12 18 11.1 18 10 L 18 4 L 14 4 z"/>
 <path style="fill:#ffffff" d="m 16,11 c -1.105333,0 -2,0.9 -2,2 v 4 c 0,1.1 0.895,2 2,2 1.105,0 2,-0.9 2,-2 v -4 c 0,-1.1 -0.894667,-2 -2,-2 z m 0,1 c 0.552,0 1,0.4 1,1 0,0.499999 -0.448,1 -1,1 -0.552,0 -1,-0.500001 -1,-1 0,-0.6 0.448,-1 1,-1 z m 0,3 c 0.552285,0 1,0.447715 1,1 v 1 c 0,0.552285 -0.447715,1 -1,1 -0.552285,0 -1,-0.447715 -1,-1 v -1 c 0,-0.552285 0.447715,-1 1,-1 z"/>
 <path style="opacity:0.5;fill:#ffffff" d="M 15 5 L 15 6 L 16 6 L 16 5 L 15 5 z M 15 7 L 15 8 L 16 8 L 16 7 L 15 7 z M 15 9 L 15 10 L 16 10 L 16 9 L 15 9 z"/>
 <path style="opacity:0.3" d="M 16 4 L 16 5 L 17 5 L 17 4 L 16 4 z M 16 6 L 16 7 L 17 7 L 17 6 L 16 6 z M 16 8 L 16 9 L 17 9 L 17 8 L 16 8 z M 16 10 L 16 11 L 17 11 L 17 10 L 16 10 z"/>
</svg>

<svg xmlns="http://www.w3.org/2000/svg" width="32" height="32" version="1">
 <path style="opacity:0.2" d="M 29,27.6667 V 6.3327 C 29,5.5944 28.42,4.9997 27.7,4.9997 H 4.3 C 3.5798,4.9997 3,5.59437 3,6.333 V 27.667 C 3,28.405 3.5798,29 4.3,29 h 23.4 c 0.72,0 1.3,-0.595 1.3,-1.333 z"/>
 <path fill="#a47a4a" d="m29 26.667v-21.334c0-0.7383-0.58-1.333-1.3-1.333h-23.4c-0.7202 0-1.3 0.59467-1.3 1.3333v21.334c0 0.738 0.5798 1.333 1.3 1.333h23.4c0.72 0 1.3-0.595 1.3-1.333z"/>
 <g>
  <path d="m 16,12 c -1.105333,0 -2,0.9 -2,2 l 0,4 c 0,1.1 0.895,2 2,2 1.105,0 2,-0.9 2,-2 l 0,-4 c 0,-1.1 -0.894667,-2 -2,-2 z m 0,1 c 0.552,0 1,0.4 1,1 0,0.499999 -0.448,1 -1,1 -0.552,0 -1,-0.500001 -1,-1 0,-0.6 0.448,-1 1,-1 z m 0,3 c 0.552285,0 1,0.447715 1,1 l 0,1 c 0,0.552285 -0.447715,1 -1,1 -0.552285,0 -1,-0.447715 -1,-1 l 0,-1 c 0,-0.552285 0.447715,-1 1,-1 z" style="opacity:0.2"/>
  <path d="m 14,4 0,6 c 0,1.1 0.895,2 2,2 1.105,0 2,-0.9 2,-2 l 0,-6 -4,0 z" style="opacity:0.2"/>
  <path d="m 16,11 c -1.105333,0 -2,0.9 -2,2 l 0,4 c 0,1.1 0.895,2 2,2 1.105,0 2,-0.9 2,-2 l 0,-4 c 0,-1.1 -0.894667,-2 -2,-2 z m 0,1 c 0.552,0 1,0.4 1,1 0,0.499999 -0.448,1 -1,1 -0.552,0 -1,-0.500001 -1,-1 0,-0.6 0.448,-1 1,-1 z m 0,3 c 0.552285,0 1,0.447715 1,1 l 0,1 c 0,0.552285 -0.447715,1 -1,1 -0.552285,0 -1,-0.447715 -1,-1 l 0,-1 c 0,-0.552285 0.447715,-1 1,-1 z" style="fill:#ffffff"/>
  <path d="m 15,5 0,1 1,0 0,-1 -1,0 z m 0,2 0,1 1,0 0,-1 -1,0 z m 0,2 0,1 1,0 0,-1 -1,0 z" style="opacity:0.5;fill:#ffffff"/>
  <path d="m 16,4 0,1 1,0 0,-1 -1,0 z m 0,2 0,1 1,0 0,-1 -1,0 z m 0,2 0,1 1,0 0,-1 -1,0 z m 0,2 0,1 1,0 0,-1 -1,0 z" style="opacity:0.3"/>
 </g>
 <path style="opacity:0.1;fill:#ffffff" d="M 4.2998,4 C 3.5796,4 3,4.5943 3,5.333 l 0,1 C 3,5.5943 3.5796,5 4.2998,5 l 23.4,0 c 0.72,0 1.3,0.5943 1.3,1.333 l 0,-1 c 0,-0.7387 -0.58,-1.333 -1.3,-1.333 l -23.4,0 z"/>
 <path style="fill:none;stroke:#ffffff" d="m 8.5,16.5 6,6 9,-2"/>
 <circle cx="8.5" cy="17.5" r="2.5" style="opacity:0.2"/>
 <circle style="fill:#3f3f3f" cx="8.5" cy="16.5" r="2.5"/>
 <circle style="opacity:0.2" cx="14.5" cy="23.5" r="2.5"/>
 <circle cx="14.5" cy="22.5" r="2.5" style="fill:#3f3f3f"/>
 <circle cx="23.5" cy="21.5" r="2.5" style="opacity:0.2"/>
 <circle style="fill:#3f3f3f" cx="23.5" cy="20.5" r="2.5"/>
</svg>
